images/3234221.svg

<?xml version="1.0" encoding="UTF-8"?>
<svg xmlns="http://www.w3.org/2000/svg" xmlns:xlink="http://www.w3.org/1999/xlink" width="300pt" height="300pt" viewBox="0 0 300 300" version="1.1">
<defs>
<g>
<symbol overflow="visible" id="glyph0-0">
<path style="stroke:none;" d="M 0.640625 2.296875 L 0.640625 -9.171875 L 7.140625 -9.171875 L 7.140625 2.296875 Z M 1.375 1.578125 L 6.421875 1.578125 L 6.421875 -8.4375 L 1.375 -8.4375 Z M 1.375 1.578125 "/>
</symbol>
<symbol overflow="visible" id="glyph0-1">
<path style="stroke:none;" d="M 1.28125 -9.484375 L 3 -9.484375 L 7.203125 -1.546875 L 7.203125 -9.484375 L 8.453125 -9.484375 L 8.453125 0 L 6.71875 0 L 2.515625 -7.921875 L 2.515625 0 L 1.28125 0 Z M 1.28125 -9.484375 "/>
</symbol>
<symbol overflow="visible" id="glyph0-2">
<path style="stroke:none;" d="M 1.28125 -9.484375 L 2.5625 -9.484375 L 2.5625 -5.59375 L 7.21875 -5.59375 L 7.21875 -9.484375 L 8.5 -9.484375 L 8.5 0 L 7.21875 0 L 7.21875 -4.515625 L 2.5625 -4.515625 L 2.5625 0 L 1.28125 0 Z M 1.28125 -9.484375 "/>
</symbol>
</g>
</defs>
<g id="surface45249">
<rect x="0" y="0" width="300" height="300" style="fill:rgb(100%,100%,100%);fill-opacity:1;stroke:none;"/>
<path style="fill:none;stroke-width:1.2;stroke-linecap:butt;stroke-linejoin:miter;stroke:rgb(0%,0%,0%);stroke-opacity:1;stroke-miterlimit:10;" d="M 73.179688 183.132812 L 69.289062 150.566406 "/>
<path style="fill:none;stroke-width:1.2;stroke-linecap:butt;stroke-linejoin:miter;stroke:rgb(0%,0%,0%);stroke-opacity:1;stroke-miterlimit:10;" d="M 69.289062 150.566406 L 39.140625 137.65625 "/>
<path style="fill:none;stroke-width:1.2;stroke-linecap:butt;stroke-linejoin:miter;stroke:rgb(0%,0%,0%);stroke-opacity:1;stroke-miterlimit:10;" d="M 69.3125 142.183594 L 45.195312 131.855469 "/>
<path style="fill:none;stroke-width:1.2;stroke-linecap:butt;stroke-linejoin:miter;stroke:rgb(0%,0%,0%);stroke-opacity:1;stroke-miterlimit:10;" d="M 95.542969 130.917969 L 69.289062 150.566406 "/>
<path style="fill:none;stroke-width:1.2;stroke-linecap:butt;stroke-linejoin:miter;stroke:rgb(0%,0%,0%);stroke-opacity:1;stroke-miterlimit:10;" d="M 39.140625 137.65625 L 35.25 105.09375 "/>
<path style="fill:none;stroke-width:1.2;stroke-linecap:butt;stroke-linejoin:miter;stroke:rgb(0%,0%,0%);stroke-opacity:1;stroke-miterlimit:10;" d="M 35.25 105.09375 L 61.503906 85.441406 "/>
<path style="fill:none;stroke-width:1.2;stroke-linecap:butt;stroke-linejoin:miter;stroke:rgb(0%,0%,0%);stroke-opacity:1;stroke-miterlimit:10;" d="M 42.5 109.304688 L 63.503906 93.582031 "/>
<path style="fill:none;stroke-width:1.2;stroke-linecap:butt;stroke-linejoin:miter;stroke:rgb(0%,0%,0%);stroke-opacity:1;stroke-miterlimit:10;" d="M 61.503906 85.441406 L 91.652344 98.351562 "/>
<path style="fill:none;stroke-width:1.2;stroke-linecap:butt;stroke-linejoin:miter;stroke:rgb(0%,0%,0%);stroke-opacity:1;stroke-miterlimit:10;" d="M 91.652344 98.351562 L 95.542969 130.917969 "/>
<path style="fill:none;stroke-width:1.2;stroke-linecap:butt;stroke-linejoin:miter;stroke:rgb(0%,0%,0%);stroke-opacity:1;stroke-miterlimit:10;" d="M 84.378906 102.523438 L 87.492188 128.574219 "/>
<path style="fill:none;stroke-width:1.2;stroke-linecap:butt;stroke-linejoin:miter;stroke:rgb(0%,0%,0%);stroke-opacity:1;stroke-miterlimit:10;" d="M 95.542969 130.917969 L 125.691406 143.828125 "/>
<path style="fill:none;stroke-width:1.2;stroke-linecap:butt;stroke-linejoin:miter;stroke:rgb(0%,0%,0%);stroke-opacity:1;stroke-miterlimit:10;" d="M 125.691406 143.828125 L 127.636719 160.109375 "/>
<path style="fill:none;stroke-width:1.2;stroke-linecap:butt;stroke-linejoin:miter;stroke:rgb(0%,0%,100%);stroke-opacity:1;stroke-miterlimit:10;" d="M 127.636719 160.109375 L 129.582031 176.390625 "/>
<path style="fill:none;stroke-width:1.2;stroke-linecap:butt;stroke-linejoin:miter;stroke:rgb(0%,0%,0%);stroke-opacity:1;stroke-miterlimit:10;" d="M 133.742188 146.167969 L 135.296875 159.195312 "/>
<path style="fill:none;stroke-width:1.2;stroke-linecap:butt;stroke-linejoin:miter;stroke:rgb(0%,0%,100%);stroke-opacity:1;stroke-miterlimit:10;" d="M 135.296875 159.195312 L 136.855469 172.21875 "/>
<path style="fill:none;stroke-width:1.2;stroke-linecap:butt;stroke-linejoin:miter;stroke:rgb(0%,0%,100%);stroke-opacity:1;stroke-miterlimit:10;" d="M 151.945312 124.175781 L 138.816406 134.003906 "/>
<path style="fill:none;stroke-width:1.2;stroke-linecap:butt;stroke-linejoin:miter;stroke:rgb(0%,0%,0%);stroke-opacity:1;stroke-miterlimit:10;" d="M 138.816406 134.003906 L 125.691406 143.828125 "/>
<path style="fill:none;stroke-width:1.2;stroke-linecap:butt;stroke-linejoin:miter;stroke:rgb(0%,0%,100%);stroke-opacity:1;stroke-miterlimit:10;" d="M 129.582031 176.390625 L 144.65625 182.847656 "/>
<path style="fill:none;stroke-width:1.2;stroke-linecap:butt;stroke-linejoin:miter;stroke:rgb(0%,0%,0%);stroke-opacity:1;stroke-miterlimit:10;" d="M 144.65625 182.847656 L 159.726562 189.304688 "/>
<path style=" stroke:none;fill-rule:nonzero;fill:rgb(100%,100%,100%);fill-opacity:1;" d="M 124.582031 168.390625 L 134.582031 168.390625 L 134.582031 184.390625 L 124.582031 184.390625 Z M 124.582031 168.390625 "/>
<g style="fill:rgb(0%,0%,100%);fill-opacity:1;">
  <use xlink:href="#glyph0-1" x="124.582031" y="180.766602"/>
</g>
<path style="fill:none;stroke-width:1.2;stroke-linecap:butt;stroke-linejoin:miter;stroke:rgb(0%,0%,0%);stroke-opacity:1;stroke-miterlimit:10;" d="M 159.726562 189.304688 L 163.621094 221.867188 "/>
<path style="fill:none;stroke-width:1.2;stroke-linecap:butt;stroke-linejoin:miter;stroke:rgb(0%,0%,0%);stroke-opacity:1;stroke-miterlimit:10;" d="M 167.78125 191.644531 L 170.894531 217.695312 "/>
<path style="fill:none;stroke-width:1.2;stroke-linecap:butt;stroke-linejoin:miter;stroke:rgb(0%,0%,0%);stroke-opacity:1;stroke-miterlimit:10;" d="M 185.984375 169.652344 L 159.726562 189.304688 "/>
<path style="fill:none;stroke-width:1.2;stroke-linecap:butt;stroke-linejoin:miter;stroke:rgb(0%,0%,0%);stroke-opacity:1;stroke-miterlimit:10;" d="M 163.621094 221.867188 L 193.765625 234.78125 "/>
<path style="fill:none;stroke-width:1.2;stroke-linecap:butt;stroke-linejoin:miter;stroke:rgb(0%,0%,0%);stroke-opacity:1;stroke-miterlimit:10;" d="M 193.765625 234.78125 L 220.023438 215.128906 "/>
<path style="fill:none;stroke-width:1.2;stroke-linecap:butt;stroke-linejoin:miter;stroke:rgb(0%,0%,0%);stroke-opacity:1;stroke-miterlimit:10;" d="M 191.769531 226.636719 L 212.773438 210.914062 "/>
<path style="fill:none;stroke-width:1.2;stroke-linecap:butt;stroke-linejoin:miter;stroke:rgb(0%,0%,0%);stroke-opacity:1;stroke-miterlimit:10;" d="M 220.023438 215.128906 L 216.128906 182.5625 "/>
<path style="fill:none;stroke-width:1.2;stroke-linecap:butt;stroke-linejoin:miter;stroke:rgb(0%,0%,0%);stroke-opacity:1;stroke-miterlimit:10;" d="M 216.128906 182.5625 L 185.984375 169.652344 "/>
<path style="fill:none;stroke-width:1.2;stroke-linecap:butt;stroke-linejoin:miter;stroke:rgb(0%,0%,0%);stroke-opacity:1;stroke-miterlimit:10;" d="M 210.078125 188.367188 L 185.960938 178.035156 "/>
<path style="fill:none;stroke-width:1.2;stroke-linecap:butt;stroke-linejoin:miter;stroke:rgb(0%,0%,0%);stroke-opacity:1;stroke-miterlimit:10;" d="M 185.984375 169.652344 L 182.09375 137.089844 "/>
<path style="fill:none;stroke-width:1.2;stroke-linecap:butt;stroke-linejoin:miter;stroke:rgb(0%,0%,0%);stroke-opacity:1;stroke-miterlimit:10;" d="M 182.09375 137.089844 L 167.019531 130.632812 "/>
<path style="fill:none;stroke-width:1.2;stroke-linecap:butt;stroke-linejoin:miter;stroke:rgb(0%,0%,100%);stroke-opacity:1;stroke-miterlimit:10;" d="M 167.019531 130.632812 L 151.945312 124.175781 "/>
<path style="fill:none;stroke-width:1.2;stroke-linecap:butt;stroke-linejoin:miter;stroke:rgb(0%,0%,0%);stroke-opacity:1;stroke-miterlimit:10;" d="M 176.039062 142.890625 L 163.980469 137.726562 "/>
<path style="fill:none;stroke-width:1.2;stroke-linecap:butt;stroke-linejoin:miter;stroke:rgb(0%,0%,100%);stroke-opacity:1;stroke-miterlimit:10;" d="M 163.980469 137.726562 L 151.921875 132.5625 "/>
<path style="fill:none;stroke-width:1.2;stroke-linecap:butt;stroke-linejoin:miter;stroke:rgb(0%,0%,0%);stroke-opacity:1;stroke-miterlimit:10;" d="M 182.09375 137.089844 L 195.21875 127.261719 "/>
<path style="fill:none;stroke-width:1.2;stroke-linecap:butt;stroke-linejoin:miter;stroke:rgb(0%,0%,100%);stroke-opacity:1;stroke-miterlimit:10;" d="M 195.21875 127.261719 L 208.347656 117.4375 "/>
<path style=" stroke:none;fill-rule:nonzero;fill:rgb(100%,100%,100%);fill-opacity:1;" d="M 146.945312 116.175781 L 156.945312 116.175781 L 156.945312 132.175781 L 146.945312 132.175781 Z M 146.945312 116.175781 "/>
<g style="fill:rgb(0%,0%,100%);fill-opacity:1;">
  <use xlink:href="#glyph0-1" x="146.945312" y="128.551758"/>
</g>
<path style="fill:none;stroke-width:1.2;stroke-linecap:butt;stroke-linejoin:miter;stroke:rgb(0%,0%,100%);stroke-opacity:1;stroke-miterlimit:10;" d="M 208.347656 117.4375 L 223.421875 123.890625 "/>
<path style="fill:none;stroke-width:1.2;stroke-linecap:butt;stroke-linejoin:miter;stroke:rgb(0%,0%,0%);stroke-opacity:1;stroke-miterlimit:10;" d="M 223.421875 123.890625 L 238.496094 130.347656 "/>
<path style="fill:none;stroke-width:1.2;stroke-linecap:butt;stroke-linejoin:miter;stroke:rgb(0%,0%,0%);stroke-opacity:1;stroke-miterlimit:10;" d="M 204.457031 84.871094 L 206.402344 101.152344 "/>
<path style="fill:none;stroke-width:1.2;stroke-linecap:butt;stroke-linejoin:miter;stroke:rgb(0%,0%,100%);stroke-opacity:1;stroke-miterlimit:10;" d="M 206.402344 101.152344 L 208.347656 117.4375 "/>
<path style=" stroke:none;fill-rule:nonzero;fill:rgb(100%,100%,100%);fill-opacity:1;" d="M 203.347656 109.4375 L 213.347656 109.4375 L 213.347656 125.4375 L 203.347656 125.4375 Z M 203.347656 109.4375 "/>
<g style="fill:rgb(0%,0%,100%);fill-opacity:1;">
  <use xlink:href="#glyph0-1" x="203.347656" y="121.813477"/>
</g>
<path style="fill:none;stroke-width:1.2;stroke-linecap:butt;stroke-linejoin:miter;stroke:rgb(0%,0%,0%);stroke-opacity:1;stroke-miterlimit:10;" d="M 238.496094 130.347656 L 264.75 110.695312 "/>
<path style="fill:none;stroke-width:1.2;stroke-linecap:butt;stroke-linejoin:miter;stroke:rgb(0%,0%,0%);stroke-opacity:1;stroke-miterlimit:10;" d="M 264.75 110.695312 L 262.804688 94.414062 "/>
<path style="fill:none;stroke-width:1.2;stroke-linecap:butt;stroke-linejoin:miter;stroke:rgb(0%,0%,100%);stroke-opacity:1;stroke-miterlimit:10;" d="M 262.804688 94.414062 L 260.859375 78.132812 "/>
<path style="fill:none;stroke-width:1.2;stroke-linecap:butt;stroke-linejoin:miter;stroke:rgb(0%,0%,100%);stroke-opacity:1;stroke-miterlimit:10;" d="M 260.859375 78.132812 L 245.785156 71.675781 "/>
<path style="fill:none;stroke-width:1.2;stroke-linecap:butt;stroke-linejoin:miter;stroke:rgb(0%,0%,0%);stroke-opacity:1;stroke-miterlimit:10;" d="M 245.785156 71.675781 L 230.710938 65.21875 "/>
<path style=" stroke:none;fill-rule:nonzero;fill:rgb(100%,100%,100%);fill-opacity:1;" d="M 250.859375 70.132812 L 270.859375 70.132812 L 270.859375 86.132812 L 250.859375 86.132812 Z M 250.859375 70.132812 "/>
<g style="fill:rgb(0%,0%,100%);fill-opacity:1;">
  <use xlink:href="#glyph0-1" x="250.859375" y="82.508789"/>
  <use xlink:href="#glyph0-2" x="260.829102" y="82.508789"/>
</g>
<path style="fill:none;stroke-width:1.2;stroke-linecap:butt;stroke-linejoin:miter;stroke:rgb(0%,0%,0%);stroke-opacity:1;stroke-miterlimit:10;" d="M 230.710938 65.21875 L 204.457031 84.871094 "/>
</g>
</svg>

<svg xmlns="http://www.w3.org/2000/svg" xmlns:xlink="http://www.w3.org/1999/xlink" width="300pt" height="300pt" viewBox="0 0 300 300"><defs><symbol overflow="visible"><path d="M.64 2.297v-11.47h6.5v11.47zm.735-.72h5.047V-8.436H1.375zm0 0"/></symbol><symbol overflow="visible" id="a"><path d="M1.28-9.484H3l4.203 7.937v-7.937h1.25V0H6.72L2.515-7.922V0H1.28zm0 0"/></symbol><symbol overflow="visible" id="b"><path d="M1.28-9.484h1.282v3.89H7.22v-3.89H8.5V0H7.22v-4.516H2.562V0H1.28zm0 0"/></symbol></defs><g><path fill="#fff" d="M0 0h300v300H0z"/><path d="M73.18 183.133l-3.89-32.567M69.29 150.566l-30.15-12.91M69.313 142.184l-24.118-10.33M95.543 130.918L69.29 150.566M39.14 137.656l-3.89-32.562M35.25 105.094L61.504 85.44M42.5 109.305l21.004-15.723M61.504 85.44l30.148 12.912M91.652 98.352l3.89 32.566M84.38 102.523l3.112 26.05M95.543 130.918l30.148 12.91M125.69 143.828l1.947 16.28" stroke-width="1.2" stroke="#000" stroke-miterlimit="10" fill="none"/><path d="M127.637 160.11l1.945 16.28" stroke-width="1.2" stroke="#00f" stroke-miterlimit="10" fill="none"/><path d="M133.742 146.168l1.555 13.027" stroke-width="1.2" stroke="#000" stroke-miterlimit="10" fill="none"/><path d="M135.297 159.195l1.558 13.024M151.945 124.176l-13.13 9.828" stroke-width="1.2" stroke="#00f" stroke-miterlimit="10" fill="none"/><path d="M138.816 134.004l-13.125 9.824" stroke-width="1.2" stroke="#000" stroke-miterlimit="10" fill="none"/><path d="M129.582 176.39l15.074 6.458" stroke-width="1.2" stroke="#00f" stroke-miterlimit="10" fill="none"/><path d="M144.656 182.848l15.07 6.457" stroke-width="1.2" stroke="#000" stroke-miterlimit="10" fill="none"/><path d="M124.582 168.39h10v16h-10zm0 0" fill="#fff"/><use xlink:href="#a" x="124.582" y="180.767" fill="#00f"/><path d="M159.727 189.305l3.894 32.562M167.78 191.645l3.115 26.05M185.984 169.652l-26.257 19.653M163.62 221.867l30.146 12.914M193.766 234.78l26.257-19.65M191.77 226.637l21.003-15.723M220.023 215.13l-3.894-32.567M216.13 182.563l-30.146-12.91M210.078 188.367l-24.117-10.332M185.984 169.652l-3.89-32.562M182.094 137.09l-15.074-6.457" stroke-width="1.2" stroke="#000" stroke-miterlimit="10" fill="none"/><path d="M167.02 130.633l-15.075-6.457" stroke-width="1.2" stroke="#00f" stroke-miterlimit="10" fill="none"/><path d="M176.04 142.89l-12.06-5.163" stroke-width="1.2" stroke="#000" stroke-miterlimit="10" fill="none"/><path d="M163.98 137.727l-12.058-5.165" stroke-width="1.2" stroke="#00f" stroke-miterlimit="10" fill="none"/><path d="M182.094 137.09l13.125-9.828" stroke-width="1.2" stroke="#000" stroke-miterlimit="10" fill="none"/><path d="M195.22 127.262l13.128-9.825" stroke-width="1.2" stroke="#00f" stroke-miterlimit="10" fill="none"/><path d="M146.945 116.176h10v16h-10zm0 0" fill="#fff"/><use xlink:href="#a" x="146.945" y="128.552" fill="#00f"/><path d="M208.348 117.438l15.074 6.453" stroke-width="1.2" stroke="#00f" stroke-miterlimit="10" fill="none"/><path d="M223.422 123.89l15.074 6.458M204.457 84.87l1.945 16.282" stroke-width="1.2" stroke="#000" stroke-miterlimit="10" fill="none"/><path d="M206.402 101.152l1.946 16.285" stroke-width="1.2" stroke="#00f" stroke-miterlimit="10" fill="none"/><path d="M203.348 109.438h10v16h-10zm0 0" fill="#fff"/><use xlink:href="#a" x="203.348" y="121.813" fill="#00f"/><path d="M238.496 130.348l26.254-19.653M264.75 110.695l-1.945-16.28" stroke-width="1.2" stroke="#000" stroke-miterlimit="10" fill="none"/><path d="M262.805 94.414l-1.946-16.28M260.86 78.133l-15.075-6.457" stroke-width="1.2" stroke="#00f" stroke-miterlimit="10" fill="none"/><path d="M245.785 71.676L230.71 65.22" stroke-width="1.2" stroke="#000" stroke-miterlimit="10" fill="none"/><path d="M250.86 70.133h20v16h-20zm0 0" fill="#fff"/><g fill="#00f"><use xlink:href="#a" x="250.859" y="82.509"/><use xlink:href="#b" x="260.829" y="82.509"/></g><path d="M230.71 65.22l-26.253 19.65" stroke-width="1.2" stroke="#000" stroke-miterlimit="10" fill="none"/></g></svg>
